X:289
T:Két ablak közt besütött a holdvilág
M:4/4
L:1/4
K:F
G/G/F/F/ G/A/F/E/ | D<C C z |
AGEC | G/G/A/B/ | A<G G z |
AGEC | G/G/A/B/ |A<G F z |
G/G/F/F/ G/A/F/E/ | D<C C z |

